icon-themes/sifr_svg/cmd/lc_stylenewbyexample.svg

<svg viewBox="0 0 24 24" xmlns="http://www.w3.org/2000/svg"><path d="m1 0c-.554 0-1 .446-1 1v5c0 .554.446 1 1 1h2v-3h5v9l4 2.34v-11.34h5v3h2c.554 0 1-.446 1-1v-5c0-.554-.446-1-1-1zm16 9v3h-3v3h3v3h3v-3h3v-3h-3v-3zm-16 1v14h22v-1zm3 6 9 5h-9z" fill="#555753"/></svg>

<svg xmlns="http://www.w3.org/2000/svg" viewBox="0 0 24 24">
  <path
     style="fill:#555753"
     d="M 1 0 C 0.446 0 0 0.446 0 1 L 0 6 C 0 6.554 0.446 7 1 7 L 3 7 L 3 4 L 8 4 L 8 13 L 12 15.34 L 12 4 L 17 4 L 17 7 L 19 7 C 19.554 7 20 6.554 20 6 L 20 1 C 20 0.446 19.554 0 19 0 L 1 0 z M 17 9 L 17 12 L 14 12 L 14 15 L 17 15 L 17 18 L 20 18 L 20 15 L 23 15 L 23 12 L 20 12 L 20 9 L 17 9 z M 1 10 L 1 24 L 23 24 L 23 23 L 1 10 z M 4 16 L 13 21 L 4 21 L 4 16 z "
     />
</svg>
